DVA
CUT[Die heilige Katharina
    Der Koenig und der Kaiser,]
CNR[die streiten wohl um eine Ehr]
REG[Europa, Mitteleuropa, Lothringen, Gebenhausen]
KEY[D0051  08  A 4/4]
MEL[-5_  1_.23b_1_  2_7b_0_
    3b_  1_-5-5-4-5-6b-4  -5_
    3b_4_.5  3b_1143b2_  ^_
    3b21_1_  -7_2_1_ //] >>
FCT[Legenden - Lied]
CMT[Verzierung; Inzipit = Variante zum Lied]
